packages/core/src/svg/icon-wine.svg

<?xml version="1.0" encoding="UTF-8"?>
<svg xmlns="http://www.w3.org/2000/svg" width="100%" height="100%" viewBox="0 0 24 24">
  <path d="M13.3822163,16.4386198 C16.5500995,16.047777 19,13.587923 19,10.6191108 C19,8.95023225 18.6290644,7.46914399 18.2707366,6.03715992 C17.9236894,4.64698076 17.5952223,3.33377571 17.5952223,1.88254811 L17.5952223,1 L7.40411413,1 L7.40411413,1.88254811 C7.40411413,3.33377571 7.07631055,4.64698076 6.72926344,6.03715992 C6.37093563,7.46914399 6,8.95023225 6,10.6191108 C6,13.587923 8.44923689,16.047777 11.6177837,16.4386198 L11.6177837,21.5938952 L6.88852024,21.5932316 L6.88852024,23.3583278 L18.1114798,23.3583278 L18.1114798,21.5932316 L13.3822163,21.5938952 L13.3822163,16.4386198 Z M9.13669542,2.76575979 L15.8633046,2.76575979 C15.9628401,4.08228268 16.2647644,5.28998009 16.5580624,6.46582614 C16.6881221,6.98473789 16.8155275,7.49369608 16.9236894,8.00199071 C16.6622429,8.07498341 16.4439283,8.16456536 16.2488388,8.2455209 C15.9124088,8.3848706 15.6675514,8.48706038 15.2368945,8.48706038 C14.8062376,8.48706038 14.5627074,8.3848706 14.2256138,8.2455209 C13.8155275,8.07564698 13.3059058,7.86396815 12.4996682,7.86396815 C11.6940942,7.86396815 11.1838089,8.07564698 10.7743862,8.2455209 C10.4372926,8.3848706 10.1930989,8.48706038 9.76244194,8.48706038 C9.331785,8.48706038 9.08759124,8.3848706 8.75116125,8.2455209 C8.55607167,8.16456536 8.33709356,8.07498341 8.07564698,8.00199071 C8.18380889,7.49369608 8.31121433,6.98473789 8.44193762,6.46582614 C8.734572,5.28998009 9.03649635,4.08228268 9.13669542,2.76575979 L9.13669542,2.76575979 Z M7.76509622,10.6191108 C7.76509622,10.3304579 7.77969476,10.0471135 7.80291971,9.7677505 C7.89051095,9.80026543 7.97876576,9.83676178 8.07431984,9.87591241 C8.4777704,10.0431321 8.9800929,10.2521566 9.76244194,10.2521566 C10.5454545,10.2521566 11.0464499,10.0431321 11.450564,9.87591241 C11.7956204,9.73324486 12.0451228,9.62906437 12.4996682,9.62906437 C12.9542137,9.62906437 13.203716,9.73324486 13.549436,9.87591241 C13.9528865,10.0431321 14.4545455,10.2521566 15.2368945,10.2521566 C16.0199071,10.2521566 16.521566,10.0431321 16.9256802,9.87591241 C17.0205707,9.83676178 17.1094891,9.80026543 17.1970803,9.7677505 C17.2203052,10.0471135 17.2342402,10.3304579 17.2342402,10.6191108 C17.2342402,12.885866 15.1101526,14.7292634 12.4996682,14.7292634 C9.88918381,14.7292634 7.76509622,12.885866 7.76509622,10.6191108 L7.76509622,10.6191108 Z" />
</svg>

<?xml version="1.0" encoding="UTF-8"?><svg viewBox="0 0 24 24" xmlns="http://www.w3.org/2000/svg"><path d="m13.382 16.439c3.1679-0.39084 5.6178-2.8507 5.6178-5.8195 0-1.6689-0.37094-3.15-0.72926-4.582-0.34705-1.3902-0.67551-2.7034-0.67551-4.1546v-0.88255h-10.191v0.88255c0 1.4512-0.3278 2.7644-0.67485 4.1546-0.35833 1.432-0.72926 2.9131-0.72926 4.582 0 2.9688 2.4492 5.4287 5.6178 5.8195v5.1553l-4.7293-6.636e-4v1.7651h11.223v-1.7651l-4.7293 6.636e-4v-5.1553zm-4.2455-13.673h6.7266c0.099536 1.3165 0.40146 2.5242 0.69476 3.7001 0.13006 0.51891 0.25747 1.0279 0.36563 1.5362-0.26145 0.072993-0.47976 0.16257-0.67485 0.24353-0.33643 0.13935-0.58129 0.24154-1.0119 0.24154s-0.67419-0.10219-1.0113-0.24154c-0.41009-0.16987-0.91971-0.38155-1.7259-0.38155-0.80557 0-1.3159 0.21168-1.7253 0.38155-0.33709 0.13935-0.58129 0.24154-1.0119 0.24154-0.43066 0-0.67485-0.10219-1.0113-0.24154-0.19509-0.080956-0.41407-0.17054-0.67551-0.24353 0.10816-0.50829 0.23557-1.0173 0.36629-1.5362 0.29263-1.1758 0.59456-2.3835 0.69476-3.7001zm-1.3716 7.8534c0-0.28865 0.014599-0.572 0.037823-0.85136 0.087591 0.032515 0.17585 0.069011 0.2714 0.10816 0.40345 0.16722 0.90577 0.37624 1.6881 0.37624 0.78301 0 1.284-0.20902 1.6881-0.37624 0.34506-0.14267 0.59456-0.24685 1.0491-0.24685 0.45455 0 0.70405 0.10418 1.0498 0.24685 0.40345 0.16722 0.90511 0.37624 1.6875 0.37624 0.78301 0 1.2847-0.20902 1.6888-0.37624 0.09489-0.039151 0.18381-0.075647 0.2714-0.10816 0.023225 0.27936 0.03716 0.56271 0.03716 0.85136 0 2.2668-2.1241 4.1102-4.7346 4.1102-2.6105 0-4.7346-1.8434-4.7346-4.1102z"/></svg>
